app/dist/common/images/carl-zeiss-meditec.svg

<svg height="18" viewBox="0 0 18 18" width="18" xmlns="http://www.w3.org/2000/svg"><path d="m0 0h18v18h-18z" fill="#f0f3fa"/><path d="m9 13c1.72 0 3.43.3 5 1v-10h-10v10c1.57-.7 3.28-1 5-1zm-.98-6.16c.2-.2.48-.31.76-.31h.46a5.72 5.72 0 0 1 -1.03 1.75c-1.35 1.49-1.2 2.72-1.2 2.72h3.99v-1.67h-.5s-.2 1.14-1.08 1.14h-.62c.03-.58 1.1-1.89 1.1-1.89 1.13-1.33 1.1-2.58 1.1-2.58h-3.82v1.67h.5c.01-.3.14-.62.34-.83z" fill="#2a3279" fill-rule="evenodd"/></svg>

<!-- by TradingView --><svg xmlns="http://www.w3.org/2000/svg" width="18" height="18" viewBox="0 0 18 18"><path fill="#F0F3FA" d="M0 0h18v18H0z"/><path fill-rule="evenodd" d="M9 13c1.72 0 3.43.3 5 1V4H4v10c1.57-.7 3.28-1 5-1zm-.98-6.16c.2-.2.48-.31.76-.31h.46a5.72 5.72 0 0 1-1.03 1.75C6.86 9.77 7.01 11 7.01 11H11V9.33h-.5s-.2 1.14-1.08 1.14H8.8c.03-.58 1.1-1.89 1.1-1.89C11.03 7.25 11 6 11 6H7.18v1.67h.5c.01-.3.14-.62.34-.83z" fill="#2A3279"/></svg>
